X:034
T:The Dram Shell
T:Am Botal dubh 's an t-slige chreachann
B:Simon Fraser Collection, 1874 edition
Z:Nigel Gatherer
M:4/4
L:1/8
K:F# minor
C|F3a fecA|ce^dc BAGE|F3a fecf|ecBG AFF:|
g|afcf cfaf|gebe gbeg|afcf cfaf|ecBG AFFg|
afcf cfaf|gebe gbeg|agfg efcf|ecBG AFF|]
<end>
<start>
